X:1
T:Recorder Sonata No.8 in c-moll from "12 Recorder Sonata for alto recorder and Basso continuo, Op.3 "
T:für Altblockﬂöte und Basso continuo
T:Recorder Sonata No.8 in c-moll
T: Paolo Benedetto Bellinzani (ca.1690 — ca.1757)
T:from " 12 Recorder Sonata for alto recorder and Basso continuo, Op.3 " Transcribed for Recorder, Viola da gamba, Harpsichord from IMSLP#510923 PDF File
T:Public Domain - Non-PD US
T:Public Domain - Non-PD US
T:Public Domain - Non-PD US
T:Public Domain - Non-PD US
T:Public Domain - Non-PD US
C:Paolo Benedetto Bellinzani (ca.1690 — ca.1757)
Z:Public Domain - Non-PD US
%%score [ 1 2 ] { ( 3 5 ) | 4 }
L:1/8
Q:3/8=70
M:12/8
K:Eb
V:1 treble nm="Alto Recorder" snm="A. Rec."
V:2 bass nm="Viola da gamba" snm="Vla. d. g."
V:3 treble nm="Harpsichord" snm="Hch."
V:5 treble 
V:4 bass 
V:1
"^1. Adagio" c'2 g e2 c' d'2 =b g2 d' | e'2 c' g2 c' c'2 =b z z/ g/c'/_b/ | %2
 a>gf/e/ d>fb/a/ g>fe/d/ c>ea/g/ | f>ed/c/ =B>dg/f/ e>dc c'>b=a/g/ | ^f>g=a/b/ c2 a- aBg- g=Af | %5
 g3 z2 z =a2 a a2 =b | c'2 g e2 e' d'>e'd' c'd'c' | =b2 g g2 c' a2 g f>ge | %8
 d2 f b>db/d/ e2 g b>_db/d/ | c2 e a>ca/c/ d2 f d2 B | eBe fBf g>fe f>ed | e3 z ef g>fg/a/ B2 g | %12
 g2 f B>de f>ef/g/ G2 f | f2 e G>cd e>de/f/ F2 e | e2 _d d>cB =A2 c d>ec | %15
 =e>fg/a/ B2 b a>gf _g>fe | f6- f>d=B G2 f | e>dc a2 c =B3 z z g | a2 a a2 g (g2 ^f) z g=f | %19
 e>dc c2 =B c2 c' c>c'c | d>c'd e>c'e e>c'f g>c'c | =b2 d'- d'fd'- d'ec'- c'db | c'6 |] %23
[M:3/4][Q:1/4=120]"^2. Allegro" g2 e2 c2 | a2 g=a/=b/ c'g | f2 ef/g/ ae | d2 cd/e/ fe | %27
 (da)(fe)(dc) | =BGBdfg | ec=egbc' | ag f=e fg | c3 cf=e | fg Tg3 f | f2 z4 | z fbfda | gBeBGe | %36
 ceaeca | fa d'a fd' | =bdgd=BG | ce a2 z c | df b2 z d | eg c'2 z e | fa d'2 z c' | =bg bd' bg | %44
 c'cegec | =bc' Td3 c | ce g3 f | df g2 z e | ce f2 z d | =Bcdefg |!p! =Bcdefg | z6 :: %52
!f! b2 g2 e2 | c'2 bc'/d'/ e'g | a2 ga/b/ c'g | f2 ef/g/ ag | (fc')(ag)(fe) | dB df ab | %58
 g^f g=a/b/ ab/g/ | ^fdf=ac'd' | b=ag^fga | d3 dg^f | g=a Ta3 g | gdgbgd | =eceg b_a/g/ | acfafc | %66
 dBdf ag/f/ | gBegeB | ceac'ae | fgd'afd' | =b2 z dgd | ef (T=e3 d/e/) | fg (T^f3 =e/f/) | %73
 gagf_ed | egc'gec | =bc' Td3 c | c6 :| x/8 |[M:4/4][Q:1/4=60]"^3. Adagio" bB Bc/d/ e2 z/ b/e'/b/ | %79
 c'b/e'/ a-a/4g/4a/4b/4 gbge | fb- b/c'/a- a/b/g- g/a/f/e/ | d/B/e/f/ Tf>e =a/f/b/d/ Tc>B | %82
 B2 z B e/g/b/g/ e/b/4a/4g/4f/4e/4d/4 | _dc z c f/a/c'/a/ f/c'/4b/4a/4g/4f/4e/4 | %84
 ed z/ f/d/B/ e/4d/4e/4B/4 f/4e/4f/4B/4 g/4f/4g/4B/4 a/4g/4a/4B/4 | %85
 b/c'/4b/4a/4g/4f/4e/4 c'/b/a/g/ f/d/e/a/ gf- | f/g/e- e/f/d- d/e/c- c/a/4g/4f/4e/4d/4c/4 | =B8 |] %88
[M:2/4][Q:1/4=120]"^4. Presto" c=B/c/ Ge | ed z e | c=B c/e/d/c/ | =B2 z g | ag/a/ Ba- | %93
 a g2 f/e/ | d/d/e/f/ Tf>e | e2 z e/f/ | g/f/e/f/ g=a | bd Bd'/c'/ | =b=a/g/ ab | %99
 c'/e/d/e/ c/e/d/e/ | f/g/a/g/ f/e/d/c/ | d/f/e/f/ d/f/e/f/ | g/a/b/a/ g/f/e/d/ | %103
 c/e/d/e/ c/e/d/e/ | f/g/a/g/ f/e/d/c/ | =B2 z B | c/g/c'/g/ e/g/c'/g/ | a2 z =a | %108
 b/f/b/f/ d/f/b/f/ | g/b/=a/b/ c'/b/a/g/ | ^f2 z f | g/d/g/d/ B/d/g/d/ | e>d c/B/=A/G/ | ^fg=Af | %114
 gG z2 :: ed/e/ Bg | gf z g | ed e/g/f/e/ | d2 z b | caBg | a2- a/f/b/a/ | g e2 d | =ed/c/ f2- | %123
 f/a/g/f/ G=e | f/_e/f/g/ a2- | a/f/d/B/ b/a/g/f/ | g/f/e/f/ g2- | g/e/c/A/ a/g/f/e/ | %128
 f/e/d/e/ f2- | f/d/=B/G/ g/f/e/d/ | e/d/c/d/ e2- | e/c/A/F/ f/e/d/c/ | =B2 z B | %133
 c/g/c'/g/ e/g/c'/g/ | a>g f/e/d/c/ | ^B2 z g | a/f/=e/f/ a/f/e/f/ | =b/g/f/g/ b/g/f/g/ | %138
 c'/=a/g/a/ c'/a/g/a/ | d'/=b/=a/b/ d'/b/a/b/ | e'/c'/=b/c'/ e'/c'/b/c'/ | d'g c'2- | %142
 c'/e'/d'/c'/ d=b | c'c z2 :| %144
V:2
 C,2 C, C,2 C, G,2 G,, G,,2 G,, | C,2 C, C,2 C, G,,2 G, E,2 C, | F,>G,A, B,2 D, E,>F,G, A,2 C, | %3
 D,>E,F, G,2 =B,, C,2 C, C,2 C | D2 D, =E,2 ^F, G,2 G,, D,2 D,, | G,,2 G,, G,,2 G, G,2 F, F,2 F, | %6
 E,2 E, E,2 C, F,2 G, A,2 ^F, | G,2 F, E,2 C, F,2 G, A,2 =A,, | B,,2 C B,2 A, G,2 G, G,2 G, | %9
 A,2 A,, A,,2 A,, B,,2 B, B,2 A, | G,>F,E, D,>C,B,, E,>F,G, A,2 B, | E,2 E, E,>ED E2 E, E,2 E, | %12
 B,2 B,, B,,>B,C D>CD =B,2 G, | C2 C, C,>CB, =A,2 A, A,2 F, | B,3 E,3 F,2 B,, F,2 F, | %15
 G,3 =E,3 F,2 A,, B,,2 C, | _D,2 D, D,2 C, =B,,2 B,, B,,2 B,, | C,>D,E, F,2 ^F,, G,,2 G, E,2 C, | %18
 C2 C C2 B,2 =A,2 =A,, =B,,2 | C,>D,E, F,2 G, C,2 z C,2 z | =B,,2 z C,2 z D,2 z E,2 F, | %21
 G,2 G,, G,,2 =B,, C,3/2 D,/E, F,2 G, | C,6 |][M:3/4] C,4 z2 | F,2 E,2 z2 | D,2 C,2 z2 | %26
 G,2 A,2 z E, | F,2 F,2 ^F,2 | G,2 z2 =B,2 | C2 _B,2 =E,2 | F,=E,F,G,A,B, | C2 B,A, G, z | %32
 A,B, C2 C,2 | z C,F,C,=A,,E, | D,2 z2 z2 | E,2 z2 z2 | A,2 z2 z2 | A,2 F,2 F,,2 | G,,2 G,2 F,2 | %39
 E,2 z C,A,,F,, | B,,2 z F,D,B,, | E,2 z G,E,C, | F,2 z A,F,A, | G,2 G,2 F,2 | E,4 C,2 | %45
 G,^F, G,2 G,,2 | C,2 z CB,A, | B,2 z B,A,G, | A,2 z A,G,F, | G,2 z2 z2 | G,2 z2 z2 | G,,2 z2 z2 :: %52
 E,4 z2 | A,2 G,2 z2 | F,2 E,2 z2 | B,2 C2 z G, | _A,2 A,2 =A,2 | B,2 z2 D,2 | E,4 C,2 | %59
 D,4 ^F,,2 | G,,^F,,G,,=A,,B,,C, | C,3 C B,=A, | B,C D2 D,2 | G,4 z2 | C2 C,2 C,2 | F,4 z2 | %66
 B,2 B,,2 B,,2 | E,4 z2 | A,2 A,2 A,2 | A,2 F,2 F,2 | G,D,G,D,=B,,G,, | C,2 _B,,4 | =A,,2 D,2 C,2 | %73
 =B,,2 B,,2 B,,2 | C,3 D, E,F, | G,^F, G,2 G,,2 | C,6 :| z/8 |[M:4/4] E,EED CB,/A,/ G,E, | %79
 A,G,F,B,, E,2 z E, | D,B,,C,F, B,,E,A,,A, | B,/A,/G,/A,/ B,B,, F,/E,/D,/E,/ F,F,, | %82
 B,,B,B,_A, G,2 z G, | A,A,A,A, A,2 z A,, | B,,CB,A, G,D,E,F, | G,G,,A,,A, B,/A,/G,/A,/ B,B,, | %86
 B,>C A,>B, G,>A, F,F,, | G,,8 |][M:2/4] C2 C,2 | G,,G,E,C, | A,G, A,F, | G,F, E,C, | F,E, D,B,, | %93
 E,2 A,2 | B,/A,/G,/A,/ B,B,, | E,A, G,F, | E,2 z E, | D,2 z2 | G,2 F,2 | E,2 z2 | A,2 z2 | %101
 B,2 z2 | E,2 z2 | A,2 z2 | D,2 z2 | G,/D,/G,/D,/ =B,,/D,/G,/F,/ | E,2 z =E, | %107
 F,/C,/F,/C,/ A,,/C,/F,/C,/ | D,2 z D, | E,2 C,2 | D,/=A,/D/A,/ ^F,/A,/D/A,/ | B,2 z =B,, | %112
 C,D, E,C, | D,B,,C,D, | G,,4 :: E2 E,2 | B,,B, G,E, | CB,CA, | B,A, G,E, | A,2 G,2 | F,E, D,B,, | %121
 E,G, A,B, | B,2 z A, | _DB, CC, | F,2 F,/G,/F,/E,/ | D,2 B,,2 | E,2- E,/F,/E,/D,/ | C,2 A,,2 | %128
 D,D, D,C, | =B,,2 G,,2 | C,2- C,/B,,/A,,/G,,/ | A,,2 F,,2 | G,,/D,/G,/D,/ =B,,/D,/G,/D,/ | %133
 E,2 z =E,, | F,,G,, A,,F,, | G,,G,=E,C, | F,2 z2 | G,2 z2 | =A,2 z2 | =B,2 z2 | C2 C,2 | %141
 G,F, E,C, | A,F, G,G,, | C,4 :| %144
V:3
 [Gce]3 [EGc]3 [DG=B]3 [GBd]3 | [EGc]3 [Gce]3 c2 =B c2 [Gce] | %2
 [Acf]2 [Fc] [FB]2 [FBf] [GBe]2 [EB] [EA]2 [EAe] | %3
 [FAd]2 [DA] [DG]2 [DGd] [Ec]>[Fce][Gce] [Gce]2 [G=Ae] | [=Ad]2 z2 z c AGG G=FF | %5
 [DGB]2 G [Bd]2 B [ce]2 d [=Ad]2 [G=Bd] | g3- g2 g a>g[df] e2 =a | g2 z z2 e f2 z [Fc]2 [EFc] | %8
 [DFB]3 [FBd]3 [EBe]3 [EB]3 | [CEA]3 [EAc]3 [DFB]3 [FBd]3 | [Be]3 B2 A [EG]2 [EGB] [EFc]2 [DFB] | %11
 [GB]3 z2 B [GB]3 [Ge]3 | [GB-e]2 [FBd] [FBd]2 [E=Ac] [FB]3 [FGd]2 [FG=B] | %13
 [Gc]3 z3/2 =A/[GB] c2 c [EFc]2 [EFA] | [FB]3 _G3 z2 B [_DFB]2 [CF_A] | %15
 [B,=EG]3 [B,CG]3 [A,CF]2 [FAc] [F_G_d]2 [E=Gc] | c2 B B>cA z2 d [FGd]2 [FGd] | %17
 c3- [FA]2 z z2 =B [CG]2 c | e3 c2 [DG] [E-Gc-]2 [E^Fc] z2 =B | [EGc]2 [EG] A>GF [CE]2 z [EG]2 z | %20
 [DG]2 z [EG]2 z [E=B]2 z [Gc]2 [Acd] | d>ef f2 [Gdf] [Gde]2 [Gce] [Acd]2 [G=Bd] | [EGc]6 |] %23
[M:3/4] z6 | [FAc]2 [Gc]2 z2 | [FG=B]2 [EGc]2 z2 | [DG]2 [CEc]2 z [EG] | [DA]4 [D=A]2 | %28
 [=B,DG]2 z2 [Gd]2 | [EGc]2 [=EGc]2 [Gc]B | [FAc]4 [FAc]2 | [=EGc]3 [EG][FA][GB] | c(_d c3) B | %33
 [FA]2 F2 [Fc]2 | [FB]2 z2 z2 | [EGB]2 z2 z2 | [CEA]2 z4 | [CF]2 z4 | z6 | [CG]2 z2 [CFc]2 | %40
 [DFB]2 z2 [FB]2 | [EGB]2 z2 [Gc]2 | [FAc]2 z2 AF | [=B,DG]4 D2 | [CG]4 [CEG]2 | %45
 [=B,DG][CE=A] [B,DG]2 [DG=B]2 | [EGc]2 z2 A2 | d2 z dcB | c2 z cBA | [DG]2 z2 z2 | D2 z2 z2 | %51
 [=B,G]2 z2 z2 :: z6 | [Ace]2 [Be]2 z2 | [ABd]2 [GBe]2 z2 | [FB]2 [EGe]2 z [GB] | [Fc]4 [Fc]2 | %57
 [DFB]2 z2 [Bf]2 | [GBe]4 [=Ae]2 | [^F=Ad]4 [d=a]2 | [Bdg]2 [Bd]2 [GBd]2 | [^F=Ad]3 [FA][GB][Ac] | %62
 d[=Ae] [^FAd]2 [Ad^f]2 | [Bdg]4 z2 | [=EGc]4 [GB=e]2 | [FAf]4 z2 | [DFB]4 [FAd]2 | [EGe]4 z2 | %68
 [EAc]4 [CEA]2 | [CF]2 [CDA]4 | [=B,DG]4 [DGd]2 | [EGc]2 [=EGc]4 | [F=Ac]2 [^FAd]4 | [DGd]4 _ED | %74
 [CEG]4 [EG][DA] | [=B,DG][CE=A] [B,DG]2 [DG=B]2 | [EGc]6 :| z/8 |[M:4/4] B2 z2 z G/A/ z e | %79
 [Ace][Be] A2 [GBe]2 z [GB] | [FB][Bd] e>f d>e [Gc][Fc] | BB/c/ [DB][FBd] cB B=A | %82
 [DFB]2 z [FB] [EB]2 z [_DEB] | [_DB][CEA] z [Ec] [CFc]2 z [EFc] | [EF-c][DFB] z [FB] z f B/c/A | %85
 e2 z/ g/f/e/ d/f/e [GB-e][FBd] | [Bd][Gc] [Gc][FB] [FB][EA] F/E/D/E/ | [=B,DG]8 |] %88
[M:2/4] [EG]2 z [Gc] | [EG-c][DG=B] CC | [CDF][B,DG] F[DA] | [=B,DG]2 [CG][EGc] | [FAc]2 [FAB]2 | %93
 AG GF | [DFB][E-GB]/[EFc]/ [DFB][FBd] | Bc BA | [GBe]2 z [cf] | [FBf]2 z2 | [G=Bd]2 [Gd]2 | %99
 [Gc]2 z2 | [Fc]2 z2 | [FB]2 z2 | [GB]2 z2 | [EA]2 z2 | [FA]2 z2 | [DG]2 z [DG] | [CG]2 z [Gc] | %107
 [FAc]2 z [Fc] | [FB]2 z [FBf] | [Be]2 [G=Ae]2 | [^F_Ad]2 z [FAd] | [DGd]2 z [DGd] | %112
 [EGc]2 G[EG=A] | [D^F=A][DGB][EGA][DFA] | [DGB]4 :: [GB]2 z [Be] | [Be][Bd] z G | [EA][DB] A[Fc] | %118
 [DFB]2 [EB][GBe] | [Ace]2 [Be]2 | [Acf]2 [ABf][ABd] | [GBe][EGB] [EFc][DFB] | [=EGc]2 z [Fc] | %123
 [FB][FG_d] cB | [CFA]3 [Ac] | z2 [ABd]2 | [GBe]3 [GB] | [Ae]2 [GAc]2 | [FAd]3 [FA] | %129
 [Fd]2 [FG=B]2 | [EGc]3 [EG] | [EF]2 [DA]2 | [DG]2 z [DG] | [CG]2 z [Gc] | c3 z | [DG]2 [CG][=EG] | %136
 [FAc]2 z2 | [DG=B]2 z2 | [CF=A]2 z2 | [DG]2 z2 | [EG]2 [EGc]2 | [DG=B]2 [CGc][EGc] | %142
 [D-Fc-][DAc] [DG=B]2 | [EGc]4 :| %144
V:4
 C,2 C, C,2 C, G,2 G,, G,,2 G,, | C,2 C, C,2 C, G,,2 G, E,2 C, | F,>G,A, B,2 D, E,>F,G, A,2 C, | %3
 D,>E,F, G,2 =B,, C,2 C, C,2 C | D2 D, =E,2 ^F, G,2 G,, D,2 D,, | G,,2 G,, G,,2 G, G,2 F, F,2 F, | %6
 E,2 E, E,2 C, F,2 G, A,2 ^F, | G,2 F, E,2 C, F,2 G, A,2 =A,, | B,,2 C B,2 A, G,2 G, G,2 G, | %9
 A,2 A,, A,,2 A,, B,,2 B, B,2 A, | G,>F,E, D,>C,B,, E,>F,G, A,2 B, | E,2 E, E,>ED E2 E, E,2 E, | %12
 B,2 B,, B,,>B,C D>CD =B,2 G, | C2 C, C,>CB, =A,2 A, A,2 F, | B,3 E,3 F,2 B,, F,2 F, | %15
 G,3 =E,3 F,2 A,, B,,2 C, | _D,2 D, D,2 C, =B,,2 B,, B,,2 B,, | C,>D,E, F,2 ^F,, G,,2 G, E,2 C, | %18
 C2 C C2 B,2 =A,2 =A,, =B,,2 | C,>D,E, F,2 G, C,2 z C,2 z | =B,,2 z C,2 z D,2 z E,2 F, | %21
 G,2 G,, G,,2 =B,, C,3/2 D,/E, F,2 G, | C,6 |][M:3/4] C,4 z2 | F,2 E,2 z2 | D,2 C,2 z2 | %26
 G,2 A,2 z E, | F,2 F,2 ^F,2 | G,2 z2 =B,2 | C2 _B,2 =E,2 | F,=E,F,G,A,B, | C2 B,A, G, z | %32
 A,B, C2 C,2 | z C,F,C,=A,,E, | D,2 z2 z2 | E,2 z2 z2 | A,2 z2 z2 | A,2 F,2 F,,2 | G,,2 G,2 F,2 | %39
 E,2 z C,A,,F,, | B,,2 z F,D,B,, | E,2 z G,E,C, | F,2 z A,F,A, | G,2 G,2 F,2 | E,4 C,2 | %45
 G,^F, G,2 G,,2 | C,2 z CB,A, | B,2 z B,A,G, | A,2 z A,G,F, | G,2 z2 z2 | G,2 z2 z2 | G,,2 z2 z2 :: %52
 E,4 z2 | A,2 G,2 z2 | F,2 E,2 z2 | B,2 C2 z G, | _A,2 A,2 =A,2 | B,2 z2 D,2 | E,4 C,2 | %59
 D,4 ^F,,2 | G,,^F,,G,,=A,,B,,C, | C,3 C B,=A, | B,C D2 D,2 | G,4 z2 | C2 C,2 C,2 | F,4 z2 | %66
 B,2 B,,2 B,,2 | E,4 z2 | A,2 A,2 A,2 | A,2 F,2 F,2 | G,D,G,D,=B,,G,, | C,2 _B,,4 | =A,,2 D,2 C,2 | %73
 =B,,2 B,,2 B,,2 | C,3 D, E,F, | G,^F, G,2 G,,2 | C,6 :| z/8 |[M:4/4] E,EED CB,/A,/ G,E, | %79
 A,G,F,B,, E,2 z E, | D,B,,C,F, B,,E,A,,A, | B,/A,/G,/A,/ B,B,, F,/E,/D,/E,/ F,F,, | %82
 B,,B,B,_A, G,2 z G, | A,A,A,A, A,2 z A,, | B,,CB,A, G,D,E,F, | G,G,,A,,A, B,/A,/G,/A,/ B,B,, | %86
 B,>C A,>B, G,>A, F,F,, | G,,8 |][M:2/4] C2 C,2 | G,,G,E,C, | A,G, A,F, | G,F, E,C, | F,E, D,B,, | %93
 E,2 A,2 | B,/A,/G,/A,/ B,B,, | E,A, G,F, | E,2 z E, | D,2 z2 | G,2 F,2 | E,2 z2 | A,2 z2 | %101
 B,2 z2 | E,2 z2 | A,2 z2 | D,2 z2 | G,/D,/G,/D,/ =B,,/D,/G,/F,/ | E,2 z =E, | %107
 F,/C,/F,/C,/ A,,/C,/F,/C,/ | D,2 z D, | E,2 C,2 | D,/=A,/D/A,/ ^F,/A,/D/A,/ | B,2 z =B,, | %112
 C,D, E,C, | D,B,,C,D, | G,,4 :: E2 E,2 | B,,B, G,E, | CB,CA, | B,A, G,E, | A,2 G,2 | F,E, D,B,, | %121
 E,G, A,B, | B,2 z A, | _DB, CC, | F,2- F,/G,/F,/E,/ | D,2 B,,2 | E,2- E,/F,/E,/D,/ | C,2 A,,2 | %128
 D,D, D,C, | =B,,2 G,,2 | C,2- C,/B,,/A,,/G,,/ | A,,2 F,,2 | G,,/D,/G,/D,/ =B,,/D,/G,/D,/ | %133
 E,2 z =E,, | F,,G,, A,,F,, | G,,G,=E,C, | F,2 z2 | G,2 z2 | =A,2 z2 | =B,2 z2 | C2 C,2 | %141
 G,F, E,C, | A,F, G,G,, | C,4 :| %144
V:5
 x12 | x6 [Gd]3 x3 | x12 | x12 | ^F2 F [=EG]2 [D=A] [DB]2 [DB] [DA]2 [DA] | x6 =A3 x3 | %6
 [Gc]3 [Gc]2 [ce] [cd]2 =B c2 [cd] | [=Bd]2 B [Gc]2 [Gc] [Ac]2 [GB] x3 | x9 E2 _D | x12 | %10
 E2 G F>ED x6 | E2 E G2 F x5 B | x12 | F2 E E3 [EF]3 x3 | E2 _D D>ED [CF]2 [DF] x3 | x12 | %16
 F3 F2 F [FG]3 x3 | [EG]2 G c2 [E=A] [DG]2 [DG] c2 [EG] | [EA]2 [EA] [EA]2 d x3 [DG]2 [DG] | %19
 x3 D2 D x6 | x12 | [G=B]3 [GB]2 x7 | x6 |][M:3/4] x6 | x6 | x6 | x6 | x4 DC | x4 GF | x4 G2 | x6 | %31
 x6 | F2 =EG E2 | x6 | x6 | x6 | x6 | x6 | x6 | x6 | x6 | x6 | x6 | x6 | x6 | x6 | x3 ed x | %47
 A2 G2 G2 | G2 F2 F2 | x6 | x6 | x6 :: x6 | x6 | x6 | x6 | x4 FE | x4 BA | x4 =AG | x4 dc | x6 | %61
 x6 | G2 x4 | x6 | x6 | x6 | x6 | x6 | x6 | x6 | x6 | x6 | x6 | x6 | x4 C2 | x6 | x6 :| x/4 | %78
[M:4/4] GGGF E2 [EB][GB] | x2 [ce][Bd] x4 | x2 BA AG x2 | FE x2 [F=A]F/[EG]/ [CF]2 | x8 | x8 | %84
 x4 [EB][FB] [Ge][Fd] | [EB]B [Ac]2 [FB][G-B]/[Gc]/ x2 | F/G/-E E/F/-D D/E/-C [CA]2 | x8 |] %88
[M:2/4] x2 EE | x4 | x2 CC | x4 | x4 | [EB]2 [Ec]2 | x4 | [Ge]2 x2 | x4 | x4 | x4 | x4 | x4 | x4 | %102
 x4 | x4 | x4 | x4 | x4 | x4 | x4 | x4 | x4 | x4 | x4 | x4 | x4 :: x2 GG | GF EE | x2 E2 | x4 | %119
 x4 | x4 | x4 | x4 | x2 [=EG]2 | x4 | x4 | x4 | x4 | x4 | x4 | x4 | x4 | x4 | x4 | [FA]2 F[DA] | %135
 x3 c | x4 | x4 | x4 | x4 | x4 | x4 | x4 | x4 :| %144

